X: 5
T: Polkett fr\aan Sv\"ardsj\"o
R: polkett
O: Sweden
B:
D:
Z: 1998 by John Chambers <jc@trillian.mit.edu>
N:
M: 2/4
L: 1/16
K: G
|: "G"G2BB BdBG | "D7"A2AB cdcB | A2ff fef2 | "G"d2gg gfg2 \
|  "G"G2BB BdBG | "D7"A2AB cdcB | A2ff f2{gf}ef | "G"g2g2 g4 :|
|: "G"b3a g2B2 | "D7"d2c2 cBc2 | a3g f2d2 | "G"b3a g2d2 \
|  "G"b3a g2B2 | "D7"d2c2 cBc2 | a3g f2{gf}ef | "G"g2g2 g4 :|
|: "G"B2B2 B2{cB}AB | "C"c2c2 c2ag | "D7"f2f2 f2{gf}ef | "G"g2g2 gfed \
|  "G"B2B2 B2{cB}AB | "C"c2c2 c4 | "D7"a3g f2{gf}ef | "G"g2g2 g4 :|

%%newpage


